img/logos/segment.svg

<?xml version="1.0" encoding="UTF-8" standalone="no"?>
<svg width="256px" height="256px" viewBox="0 0 256 256" version="1.1" xmlns="http://www.w3.org/2000/svg" xmlns:xlink="http://www.w3.org/1999/xlink" preserveAspectRatio="xMinYMin meet">
	<g fill="#000000">
		<path d="M255.68128,119.88224 C253.4144,81.69088 232.73216,44.77568 201.25184,23.12448 C169.91872,1.06752 128.288,-5.95712 91.68384,5.2928 C54.70848,16.09984 23.62624,44.15488 9.43872,79.8592 C-5.29152,115.49824 -2.65216,157.18656 16.46336,190.68416 C35.04896,224.31104 69.42592,248.21376 107.46752,254.26432 C145.2032,260.80128 185.60512,248.57472 213.90464,222.74048 C242.4,197.28768 258.25664,158.05184 255.68128,119.88224 L255.68128,119.88224 Z M222.5024,194.07104 L191.59296,172.44416 C196.1344,166.14656 199.3984,159.02848 201.86496,151.71328 L189.89312,147.8656 C187.02592,157.15456 181.8432,165.71648 175.09888,172.75392 L211.58272,207.38048 C209.54752,209.40672 207.66336,211.59168 205.4528,213.42976 C186.40896,230.99008 160.9664,241.39648 135.24864,243.16032 L132.864,205.51168 C140.5952,204.85248 148.224,203.29216 155.50464,200.62976 L151.05024,188.8704 C141.9584,192.2496 132.02816,193.58208 122.32192,192.75392 L118.04416,242.87104 C115.1808,242.5728 112.29568,242.46912 109.47328,241.85088 C83.74912,237.87904 59.90656,224.53504 42.50112,205.48352 L70.432,180.12672 C75.70304,185.79712 81.69856,190.80448 88.3456,194.8032 L94.76736,183.99104 C86.42432,178.9568 79.19488,172.06784 73.77664,163.98848 L31.91808,191.8784 C30.21184,189.55904 28.84096,187.01824 27.42144,184.512 C14.48832,161.89696 9.98784,135.04512 14.07872,109.504 L51.32032,115.52384 C50.272,123.15648 49.80352,131.00288 51.08352,138.67136 L63.54048,136.95104 C62.2272,127.25888 63.06304,117.34144 66.00704,108.09344 L18.1184,92.70528 C18.86976,89.91488 20.02048,87.26912 21.088,84.5952 C30.73536,60.512 48.74368,40.064 71.41504,27.45216 L89.92384,60.32512 C83.16288,64.07808 76.93184,68.84992 71.67744,74.54976 L80.79872,83.20512 C87.52256,76.15232 95.77088,70.56256 104.8448,67.0912 L87.02592,20.05504 L95.24096,17.35296 C120.06272,10.07104 147.26784,11.14496 171.3344,21.11872 L157.12512,56.064 C149.98656,53.08672 142.36928,51.22304 134.64576,50.67648 L133.57568,63.2064 C143.25504,64.04096 152.7424,66.99392 161.13024,71.968 L186.816,28.72192 L194.0416,33.42848 C215.136,48.288 231.3856,70.25536 238.57664,95.27296 L202.39232,105.94432 C200.35456,98.4576 196.75776,91.49312 192.58752,84.99968 L182.12352,91.9744 C187.6096,100.02432 191.0976,109.33888 192.35968,119.01056 L242.18496,112.128 L243.1296,120.6784 C244.6272,146.41152 237.51808,172.96896 222.5024,194.07104 L222.5024,194.07104 Z"></path>
		<path d="M180.384,124.65664 C179.41248,112.83968 174.92608,101.472 166.84672,92.73728 L194.7776,67.38048 C200.91776,73.98016 205.76,81.68704 209.66656,89.77408 L221.05472,84.44544 C214.62784,70.43456 204.85632,58.06592 192.93184,48.39168 L161.1136,87.34976 C160.04992,86.58176 159.14496,85.59232 157.9968,84.94464 C148.31232,78.03264 136.47104,75.01568 124.62464,75.5456 L122.24,37.89824 C131.2256,37.4976 140.256,38.18752 149.04704,40.20608 L151.98336,27.97568 C136.96384,24.4416 121.27872,24.32768 106.25792,27.55072 L116.832,76.72576 C115.5712,77.05344 114.23488,77.13664 113.0304,77.6576 C101.72032,80.832 91.77088,88.3328 84.91264,97.93024 L54.0032,76.30336 C59.232,68.99328 65.41568,62.35648 72.49024,56.77824 L64.75264,46.86336 C52.67328,56.37632 42.74816,68.55168 35.87712,82.31296 L80.92288,104.69504 C80.22144,105.8112 79.82976,107.06688 79.33184,108.27392 C74.74944,119.05024 74.35392,131.59552 77.62688,142.89792 L41.44256,153.57056 C39.08224,144.91392 37.4592,135.95264 37.77408,126.94528 L25.19936,126.81088 C25.05088,142.13504 28.33024,157.54496 34.8416,171.51104 L80.40064,150.20032 C80.82944,151.44064 81.58464,152.52096 82.20928,153.66528 C87.86304,163.96928 97.30688,172.288 108.24064,176.5952 L94.03392,211.54304 C85.68832,208.19968 77.81504,203.60576 70.91712,197.82528 L62.9632,207.5648 C74.86336,217.26208 88.93184,224.35712 103.9168,227.97952 L115.6544,179.06944 L119.49952,179.77984 C131.1296,181.6 143.52128,179.6224 153.63456,173.71776 L172.1408,206.58944 C164.33792,211.06304 155.81568,214.33344 146.99392,216.11264 L149.63712,228.40576 C164.66816,225.17504 179.01952,218.55872 191.14112,209.0944 L160.19968,169.43744 L163.18976,166.87616 C171.84384,158.86336 178.0288,148.04608 179.74912,136.42496 L216.992,142.44352 C215.71456,151.37664 212.63616,159.95904 208.75776,168.04864 L220.01664,173.64352 C226.96576,159.9168 230.61888,144.50304 230.69696,129.1456 L180.40064,128.61056 L180.384,124.65664 L180.384,124.65664 Z M154.74048,157.56544 C145.87392,165.51936 133.46816,169.50144 121.50784,167.3664 C109.888,165.51936 98.85312,158.03136 93.16608,147.49952 C87.2064,137.33504 86.35392,123.84896 90.98112,113.01248 C95.29216,101.8432 105.2928,93.02144 116.58624,89.72032 C128.18304,86.09536 140.98944,88.47616 150.78784,95.24864 C160.75904,102.19648 166.97856,113.41952 167.83232,125.4528 C168.5056,137.49632 163.75424,149.41312 154.74048,157.56544 L154.74048,157.56544 Z"></path>
	</g>
</svg>

<svg width="256" height="256" viewBox="0 0 256 256" xmlns="http://www.w3.org/2000/svg" preserveAspectRatio="xMinYMin meet"><path d="M255.68 119.882c-2.266-38.19-22.948-75.106-54.428-96.758C169.92 1.068 128.288-5.956 91.684 5.294 54.708 16.1 23.626 44.153 9.44 79.858c-14.732 35.638-12.092 77.327 7.023 110.824 18.586 33.627 52.963 57.53 91.005 63.58 37.735 6.537 78.137-5.69 106.437-31.524 28.495-25.452 44.352-64.688 41.776-102.858zm-33.178 74.19l-30.91-21.628c4.542-6.297 7.806-13.416 10.273-20.73l-11.972-3.848c-2.867 9.29-8.05 17.85-14.794 24.888l36.483 34.626c-2.035 2.027-3.92 4.212-6.13 6.05-19.044 17.56-44.487 27.966-70.204 29.73l-2.386-37.648c7.73-.66 15.36-2.22 22.64-4.882l-4.454-11.76c-9.092 3.38-19.022 4.712-28.728 3.884l-4.278 50.117c-2.863-.297-5.748-.4-8.57-1.02-25.725-3.97-49.567-17.315-66.973-36.366l27.932-25.357c5.27 5.67 11.267 10.677 17.914 14.676l6.42-10.812c-8.342-5.033-15.57-11.922-20.99-20.002l-41.858 27.89c-1.706-2.32-3.077-4.86-4.497-7.366-12.932-22.615-17.432-49.467-13.34-75.008l37.24 6.02c-1.048 7.632-1.516 15.48-.236 23.147l12.456-1.72c-1.313-9.69-.477-19.61 2.467-28.857l-47.89-15.388c.753-2.79 1.903-5.436 2.97-8.11 9.648-24.083 27.657-44.53 50.328-57.143l18.51 32.873C83.162 64.078 76.93 68.85 71.676 74.55l9.122 8.655c6.723-7.053 14.97-12.642 24.045-16.114l-17.82-47.035 8.216-2.702c24.823-7.282 52.028-6.208 76.094 3.766l-14.21 34.944c-7.137-2.977-14.755-4.84-22.478-5.388l-1.07 12.53c9.68.835 19.166 3.788 27.554 8.762l25.686-43.246 7.226 4.706c21.094 14.86 37.344 36.827 44.535 61.845l-36.185 10.67c-2.037-7.485-5.634-14.45-9.804-20.943l-10.464 6.974c5.486 8.05 8.974 17.365 10.236 27.037l49.825-6.882.945 8.55c1.497 25.734-5.612 52.29-20.628 73.393z"/><path d="M180.384 124.657c-.972-11.817-5.458-23.185-13.537-31.92l27.93-25.357c6.14 6.6 10.983 14.307 14.89 22.394l11.388-5.33c-6.427-14.01-16.2-26.378-28.123-36.052L161.114 87.35c-1.064-.768-1.97-1.758-3.117-2.405-9.685-6.912-21.526-9.93-33.372-9.4L122.24 37.9c8.986-.4 18.016.29 26.807 2.308l2.936-12.23c-15.02-3.534-30.704-3.648-45.725-.425l10.574 49.176c-1.26.327-2.597.41-3.802.932-11.31 3.174-21.26 10.675-28.117 20.272l-30.91-21.627c5.23-7.31 11.413-13.947 18.487-19.525l-7.737-9.915c-12.08 9.513-22.005 21.69-28.876 35.45l45.046 22.382c-.702 1.116-1.093 2.372-1.59 3.58-4.584 10.775-4.98 23.32-1.706 34.623L41.443 153.57c-2.36-8.656-3.984-17.617-3.67-26.625L25.2 126.81c-.15 15.325 3.13 30.735 9.642 44.7l45.56-21.31c.427 1.24 1.183 2.32 1.807 3.465 5.653 10.304 15.097 18.623 26.03 22.93l-14.206 34.948c-8.346-3.343-16.22-7.937-23.117-13.718l-7.954 9.74c11.9 9.697 25.97 16.792 40.954 20.415l11.737-48.91 3.846.71c11.63 1.82 24.02-.158 34.135-6.062l18.506 32.87c-7.802 4.475-16.324 7.745-25.146 9.525l2.643 12.293c15.03-3.23 29.383-9.847 41.504-19.312l-30.94-39.657 2.99-2.56c8.654-8.014 14.84-18.83 16.56-30.452l37.242 6.02c-1.277 8.932-4.356 17.514-8.234 25.604l11.26 5.594c6.948-13.727 10.6-29.14 10.68-44.498l-50.297-.535-.016-3.953zm-25.644 32.908c-8.866 7.954-21.272 11.936-33.232 9.8-11.62-1.846-22.655-9.334-28.342-19.865-5.96-10.165-6.812-23.65-2.185-34.488 4.312-11.17 14.313-19.99 25.606-23.292 11.597-3.625 24.403-1.244 34.202 5.53 9.97 6.946 16.19 18.17 17.044 30.203.674 12.043-4.078 23.96-13.092 32.112z"/></svg>
